X: 133
T: Miss Rabina Boswell's Reel
%R: reel
B: Urbani & Liston "A Selection of Scotch, English Irish, and Foreign Airs", Edinburgh 1800, p.52 #2
F: http://www.vwml.org/browse/browse-collections-dance-tune-books/browse-urbani1800
Z: 2014 John Chambers <jc:trillian.mit.edu>
M: C|
L: 1/8
K: G
D |\
G2Gd BGdB | gd e/d/c/B/ cAAd |\
BG GF/G/ DGBd | cAdc BGG :|\
|: d |\
gbdg egdg | cgBg Aaac' |
bgdg egfa | gedc BGGd |\
gbdg cgBg | dgbg fac'a |\
bgdg ec'ba | gedc BGG :|

%%sep 1 1 500
%%sep 1 1 500
